registrations/add-ons-outline.svg

<svg xmlns="http://www.w3.org/2000/svg" viewBox="0 0 16 16"><defs><style>.cls-1{fill:#231f20;fill-rule:evenodd}</style></defs><title>add-ons-outline</title><g id="Layer_1" data-name="Layer 1"><path class="cls-1" d="M14.935 3.515h-.666v-1a.981.981 0 0 0-.979-.979h-2.869a.981.981 0 0 0-.979.979v1H6.776v-1a.981.981 0 0 0-.976-.983H2.929a.981.981 0 0 0-.979.979v1H1.1A1.029 1.029 0 0 0 .071 4.542v9.518A1.029 1.029 0 0 0 1.1 15.088h13.835a1.029 1.029 0 0 0 1.028-1.028V4.542a1.029 1.029 0 0 0-1.028-1.027zm-.372 10.173H1.472V4.915H3.35V2.932h2.026v1.983h5.466V2.932h2.026v1.983h1.694z"/><path class="cls-1" d="M10.259 8.565H8.89V7.2a.1.1 0 0 0-.1-.1H7.266a.1.1 0 0 0-.1.1v1.365H5.8a.1.1 0 0 0-.1.1v1.522a.1.1 0 0 0 .1.1h1.364v1.373a.1.1 0 0 0 .1.1h1.524a.1.1 0 0 0 .1-.1v-1.369h1.369a.1.1 0 0 0 .1-.1V8.667a.1.1 0 0 0-.098-.102z"/></g></svg>

<svg xmlns="http://www.w3.org/2000/svg" viewBox="0 0 16 16"><defs><style>.cls-1{fill:#231f20;fill-rule:evenodd;}</style></defs><title>add-ons-outline</title><g id="Layer_1" data-name="Layer 1"><path class="cls-1" d="M14.935,3.515h-.666v-1a.981.981,0,0,0-.979-.979H10.421a.981.981,0,0,0-.979.979v1H6.776v-1A.981.981,0,0,0,5.8,1.532H2.929a.981.981,0,0,0-.979.979v1H1.1A1.029,1.029,0,0,0,.071,4.542v9.518A1.029,1.029,0,0,0,1.1,15.088H14.935a1.029,1.029,0,0,0,1.028-1.028V4.542A1.029,1.029,0,0,0,14.935,3.515Zm-.372,10.173H1.472V4.915H3.35V2.932H5.376V4.915h5.466V2.932h2.026V4.915h1.694Z"/><path class="cls-1" d="M10.259,8.565H8.89V7.2a.1.1,0,0,0-.1-.1H7.266a.1.1,0,0,0-.1.1V8.565H5.8a.1.1,0,0,0-.1.1v1.522a.1.1,0,0,0,.1.1H7.164V11.66a.1.1,0,0,0,.1.1H8.788a.1.1,0,0,0,.1-.1V10.291h1.369a.1.1,0,0,0,.1-.1V8.667A.1.1,0,0,0,10.259,8.565Z"/></g></svg>
